packages/components/src/components/icon/common/ic-thumbs-down.svg

<svg width="16" height="17" viewBox="0 0 16 17" xmlns="http://www.w3.org/2000/svg">
<path fill="var(--fill-color1)" d="M3.00852 10.5482H6.00639L6.00639 13.0153C5.95605 13.489 6.09832 13.963 6.40191 14.3332C6.7055 14.7033 7.14554 14.9392 7.62524 14.9889C7.75137 15.0037 7.87884 15.0037 8.00497 14.9889H8.78941C8.95643 14.9844 9.1172 14.9253 9.2465 14.8208C9.37581 14.7163 9.46635 14.5724 9.50391 14.4116V14.3524L10.0035 11.2242L11.7723 8.57451H15L15 1.66669L5.50674 1.66669C1.78938 1.66669 1.00994 3.81305 1.00994 5.61402L1.00994 8.57451C0.959598 9.04823 1.10187 9.52229 1.40546 9.89242C1.70905 10.2626 2.14909 10.4984 2.62879 10.5482C2.75492 10.563 2.88239 10.563 3.00852 10.5482ZM12.0021 2.65352L14.0007 2.65352V7.58768L12.0021 7.58768V2.65352ZM2.00923 5.61402C2.00923 3.59594 3.11844 2.65352 5.50674 2.65352L11.0028 2.65352V7.93307L9.00426 10.859L8.63952 13.5087L8.56957 14.0021H8.00497C7.28548 14.0021 7.00568 13.7258 7.00568 13.0153L7.00568 9.56134L3.00852 9.56134C2.28903 9.56134 2.00923 9.28503 2.00923 8.57451L2.00923 5.61402Z"/>
</svg>

<svg width="16" height="17" xmlns="http://www.w3.org/2000/svg"><path fill="var(--fill-color1)" d="M3.009 10.548h2.997v2.467c-.05.474.092.948.396 1.318a1.825 1.825 0 0 0 1.603.656h.784a.76.76 0 0 0 .457-.168.744.744 0 0 0 .258-.41v-.059l.5-3.128 1.768-2.65H15V1.668H5.507c-3.718 0-4.497 2.146-4.497 3.947v2.96c-.05.474.092.948.395 1.318a1.825 1.825 0 0 0 1.604.656Zm8.993-7.894h1.999v4.934h-1.999V2.654ZM2.01 5.614c0-2.018 1.11-2.96 3.498-2.96h5.496v5.28l-1.999 2.925-.364 2.65-.07.493h-.565c-.72 0-1-.276-1-.987V9.561H3.01c-.72 0-1-.276-1-.986V5.614Z"/></svg>
